X:54
T:Reprisal,The. BC.54
T:?aka. BC.54
M:C
L:1/8
Q:160
S:Benjamin Cooke MS.circa 1770, F.Kidson Coll.
R:Misc.
O:England
A:x
Z:vmp.John Bagnall
K:G
dc |\
{c}B2 BB {Bc}d2 cB | {B}A2 A>A A2 .B.c | {cd}d2 cB {d}c2 BA | {A}G2 GG G2 gf |
{f}e2 d>d d2 ((3GBd) | {d}d2 BB B2 gf | {f}e2 dd d2 cB | (AG) AB D2 (dc) |
{c}B2 BB (Bg) dB | {c}A2 AA AB cd | (e<g) dB ({Bc})c2 B A | {A}G2 GG G2 |]

